public/assets/shake.svg

<svg width="1037" height="738" viewBox="0 0 1037 738" fill="none" xmlns="http://www.w3.org/2000/svg">
<path d="M953.87 424.66L851.87 478.76L743.16 290.43C759.62 280.89 785.16 265.75 814.16 248.43C775.7 206.06 737.48 168.27 696.29 129.31C624.57 61.19 544 -10.82 472 1.36003C423.72 9.55003 379.44 56 331.4 105.42H575.05V205.12H531.11L513.83 241.44L496.55 205.12H323.88V113.12C302.88 134.69 281.02 156.49 257.78 175.64C235.29 194.12 211.47 210.17 187.78 225.23L351 363.31C351 363.31 471.93 326.14 482.29 327.31C493.73 328.61 508.1 336.46 523.81 348.43C533.65 344.27 541.81 340.94 546.04 339.38C563.84 332.91 622.11 353.95 635.04 355.57C647.97 357.19 686.83 337.76 693.49 333.82L786.41 494.82C786.41 494.82 695.41 549.61 658.98 570.18C634.92 607.64 580.98 657.18 492.58 661.08C487.58 659.08 469.91 648.27 445.36 632.56L447.08 632.06L445.85 631.93C438.42 641.68 421.24 653.23 410.95 651.72C398.31 649.86 308.76 590.78 297.24 574.06C287.8 560.35 289.59 538.17 290.55 530.61C237.55 495.16 193.23 465.2 186.85 460.68C173 450.84 79.09 392.51 29.8 351.88C-13 420.62 -9.69998 519.18 39.68 582.1C90.97 647.1 191.68 674.05 270.73 691.1C349.48 708.19 406.46 715.45 469.41 723.74C532.09 732.28 601.25 741.87 712.41 735.13C823.79 728.66 977.41 705.86 1014.69 635.13C1042.84 581.57 1004.78 500.59 953.87 424.66Z" fill="#DC143C"/>
<path d="M445.33 632.51C469.88 648.22 487.57 659.07 492.55 661.03C580.95 657.17 634.89 607.59 658.95 570.13" stroke="#15023A" stroke-width="2.5" stroke-linecap="round" stroke-linejoin="round"/>
<path d="M7.63 76.42C7.63 76.42 51.84 111.14 84.09 137.51L351 363.31C351 363.31 471.93 326.14 482.29 327.31C493.73 328.61 508.1 336.46 523.81 348.43" stroke="#15023A" stroke-width="2.5" stroke-linecap="round" stroke-linejoin="round"/>
<path d="M290.52 530.56C237.52 495.11 193.2 465.15 186.82 460.63C170.41 449 41.14 369 7.63 331.37" stroke="#15023A" stroke-width="2.5" stroke-linecap="round" stroke-linejoin="round"/>
<path d="M834.09 530.37C843.921 530.37 851.89 522.401 851.89 512.57C851.89 502.739 843.921 494.77 834.09 494.77C824.259 494.77 816.29 502.739 816.29 512.57C816.29 522.401 824.259 530.37 834.09 530.37Z" fill="#15023A"/>
<path d="M693.46 333.82C686.8 337.76 647.96 357.19 635.01 355.57C622.06 353.95 563.79 332.91 546.01 339.38C528.23 345.85 444.01 383.08 444.01 383.08C444.01 383.08 367.93 464.01 366.31 465.63C364.69 467.25 366.22 479.84 368.54 481.85C370.86 483.86 397 491.75 401.33 489.12C405.66 486.49 464.13 441.63 474.65 441.63C485.17 441.63 585.53 513.76 645.31 577.43C659.1 571.43 786.37 494.77 786.37 494.77L693.46 333.82Z" stroke="#15023A" stroke-width="2.5" stroke-linecap="round" stroke-linejoin="round"/>
<path d="M290.9 527.93C290.9 527.93 285.69 557.29 297.21 574.01C308.73 590.73 398.28 649.81 410.92 651.67C423.56 653.53 446.59 635.67 449.19 625.67C451.79 615.67 435.07 578.85 430.24 573.67C425.41 568.49 356.29 520.13 348.86 519C341.43 517.87 302.42 520.87 290.9 527.93Z" stroke="#15023A" stroke-width="2.5" stroke-linecap="round" stroke-linejoin="round"/>
<path d="M299.64 577.43L349.13 539.92" stroke="#15023A" stroke-width="2.5" stroke-linecap="round" stroke-linejoin="round"/>
<path d="M338.48 608.87L387.98 571.36" stroke="#15023A" stroke-width="2.5" stroke-linecap="round" stroke-linejoin="round"/>
<path d="M376.37 633.31L413.98 604.81" stroke="#15023A" stroke-width="2.5" stroke-linecap="round" stroke-linejoin="round"/>
<path d="M617.15 615.61L476.34 501.17" stroke="#15023A" stroke-width="2.5" stroke-linecap="round" stroke-linejoin="round"/>
<path d="M564.78 644.75L475.47 572.17" stroke="#15023A" stroke-width="2.5" stroke-linecap="round" stroke-linejoin="round"/>
<path d="M520.13 660.21L446.64 600.49" stroke="#15023A" stroke-width="2.5" stroke-linecap="round" stroke-linejoin="round"/>
<path d="M232.213 360.702L179.335 315.492C169.37 306.972 154.384 308.143 145.864 318.109L93.6225 379.21C85.1022 389.176 86.2737 404.161 96.2391 412.682L149.117 457.891C159.082 466.412 174.068 465.24 182.588 455.275L234.829 394.173C243.35 384.208 242.178 369.222 232.213 360.702Z" fill="#15023A"/>
<path d="M226.49 674.73C237.558 674.73 246.53 665.758 246.53 654.69C246.53 643.622 237.558 634.65 226.49 634.65C215.422 634.65 206.45 643.622 206.45 654.69C206.45 665.758 215.422 674.73 226.49 674.73Z" stroke="#15023A" stroke-width="8.09" stroke-miterlimit="10"/>
<path d="M737.68 639.43C745.721 639.43 752.24 632.911 752.24 624.87C752.24 616.829 745.721 610.31 737.68 610.31C729.639 610.31 723.12 616.829 723.12 624.87C723.12 632.911 729.639 639.43 737.68 639.43Z" stroke="#15023A" stroke-width="8.09" stroke-miterlimit="10"/>
<path d="M638.51 300.94C646.551 300.94 653.07 294.421 653.07 286.38C653.07 278.339 646.551 271.82 638.51 271.82C630.469 271.82 623.95 278.339 623.95 286.38C623.95 294.421 630.469 300.94 638.51 300.94Z" stroke="#15023A" stroke-width="8.09" stroke-miterlimit="10"/>
<path d="M575.05 105.42H323.88V205.12H496.55L513.83 241.44L531.11 205.12H575.05V105.42Z" stroke="#15023A" stroke-width="2.5" stroke-linecap="round" stroke-linejoin="round"/>
<path d="M357.98 130.8H540.94" stroke="#15023A" stroke-width="2.5" stroke-linecap="round" stroke-linejoin="round"/>
<path d="M357.98 155.27H540.94" stroke="#15023A" stroke-width="2.5" stroke-linecap="round" stroke-linejoin="round"/>
<path d="M357.98 179.73H540.94" stroke="#15023A" stroke-width="2.5" stroke-linecap="round" stroke-linejoin="round"/>
<path d="M1035 115.61L1016.86 126.54C1016.86 126.54 808.48 252.59 743.16 290.43L851.9 478.76L1035 381.6" stroke="#15023A" stroke-width="2.5" stroke-linecap="round" stroke-linejoin="round"/>
</svg>

<svg xmlns="http://www.w3.org/2000/svg" xmlns:xlink="http://www.w3.org/1999/xlink" viewBox="0 0 1036.29 737.45"><defs><style>.cls-1,.cls-4,.cls-6{fill:none;}.cls-2{fill:#949494;}.cls-3{fill:#f2f2f2;}.cls-4,.cls-6{stroke:#000;}.cls-4{stroke-linecap:round;stroke-linejoin:round;stroke-width:2.5px;}.cls-5{fill:url(#New_Pattern);}.cls-6{stroke-miterlimit:10;stroke-width:8.09px;}</style><pattern id="New_Pattern" data-name="New Pattern" width="12" height="12" patternTransform="matrix(-1, 0, 0, 1, 10.59, -37.18)" patternUnits="userSpaceOnUse" viewBox="0 0 12 12"><rect class="cls-1" width="12" height="12"/><rect class="cls-1" width="12" height="12"/><circle class="cls-2" cx="12" cy="3" r="2"/><circle class="cls-2" cx="6" r="2"/><circle class="cls-2" cy="3" r="2"/><circle class="cls-2" cx="12" cy="9" r="2"/><circle class="cls-2" cx="6" cy="6" r="2"/><circle class="cls-2" cy="9" r="2"/><circle class="cls-2" cx="6" cy="12" r="2"/></pattern></defs><title>handshake-monochrome</title><g id="Layer_2" data-name="Layer 2"><g id="Vector"><path class="cls-3" d="M953.87,424.66l-102,54.1L743.16,290.43c16.46-9.54,42-24.68,71-42-38.46-42.37-76.68-80.16-117.87-119.12C624.57,61.19,544-10.82,472,1.36,423.72,9.55,379.44,56,331.4,105.42H575.05v99.7H531.11l-17.28,36.32-17.28-36.32H323.88v-92c-21,21.57-42.86,43.37-66.1,62.52-22.49,18.48-46.31,34.53-70,49.59L351,363.31s120.93-37.17,131.29-36c11.44,1.3,25.81,9.15,41.52,21.12h0c9.84-4.16,18-7.49,22.23-9.05,17.8-6.47,76.07,14.57,89,16.19s51.79-17.81,58.45-21.75l92.92,161s-91,54.79-127.43,75.36h0c-24.06,37.46-78,87-166.4,90.9-5-2-22.67-12.81-47.22-28.52l1.72-.5-1.23-.13c-7.43,9.75-24.61,21.3-34.9,19.79-12.64-1.86-102.19-60.94-113.71-77.66-9.44-13.71-7.65-35.89-6.69-43.45h0c-53-35.45-97.32-65.41-103.7-69.93C173,450.84,79.09,392.51,29.8,351.88-13,420.62-9.7,519.18,39.68,582.1c51.29,65,152,91.95,231.05,109,78.75,17.09,135.73,24.35,198.68,32.64,62.68,8.54,131.84,18.13,243,11.39,111.38-6.47,265-29.27,302.28-100C1042.84,581.57,1004.78,500.59,953.87,424.66Z"/><path class="cls-4" d="M445.33,632.51c24.55,15.71,42.24,26.56,47.22,28.52,88.4-3.86,142.34-53.44,166.4-90.9"/><path class="cls-4" d="M7.63,76.42s44.21,34.72,76.46,61.09L351,363.31s120.93-37.17,131.29-36c11.44,1.3,25.81,9.15,41.52,21.12"/><path class="cls-4" d="M290.52,530.56c-53-35.45-97.32-65.41-103.7-69.93C170.41,449,41.14,369,7.63,331.37"/><polygon class="cls-5" points="879.12 525.92 823.05 558.29 687.09 322.8 743.16 290.43 879.12 525.92"/><circle cx="834.09" cy="512.57" r="17.8"/><path class="cls-4" d="M693.46,333.82c-6.66,3.94-45.5,23.37-58.45,21.75s-71.22-22.66-89-16.19-102,43.7-102,43.7-76.08,80.93-77.7,82.55-.09,14.21,2.23,16.22,28.46,9.9,32.79,7.27,62.8-47.49,73.32-47.49,110.88,72.13,170.66,135.8c13.79-6,141.06-82.66,141.06-82.66Z"/><path class="cls-4" d="M290.9,527.93s-5.21,29.36,6.31,46.08,101.07,75.8,113.71,77.66,35.67-16,38.27-26-14.12-46.82-18.95-52S356.29,520.13,348.86,519,302.42,520.87,290.9,527.93Z"/><line class="cls-4" x1="299.64" y1="577.43" x2="349.13" y2="539.92"/><line class="cls-4" x1="338.48" y1="608.87" x2="387.98" y2="571.36"/><line class="cls-4" x1="376.37" y1="633.31" x2="413.98" y2="604.81"/><line class="cls-4" x1="617.15" y1="615.61" x2="476.34" y2="501.17"/><line class="cls-4" x1="564.78" y1="644.75" x2="475.47" y2="572.17"/><line class="cls-4" x1="520.13" y1="660.21" x2="446.64" y2="600.49"/><rect x="105.73" y="322.77" width="117.05" height="127.87" rx="23.74" ry="23.74" transform="translate(290.68 -13.97) rotate(40.53)"/><polygon class="cls-5" points="231.44 359.87 182.29 317.84 231.93 259.77 281.09 301.8 231.44 359.87"/><circle class="cls-6" cx="226.49" cy="654.69" r="20.04"/><circle class="cls-6" cx="737.68" cy="624.87" r="14.56"/><circle class="cls-6" cx="638.51" cy="286.38" r="14.56"/><polygon class="cls-4" points="575.05 105.42 323.88 105.42 323.88 205.12 496.55 205.12 513.83 241.44 531.11 205.12 575.05 205.12 575.05 105.42"/><line class="cls-4" x1="357.98" y1="130.8" x2="540.94" y2="130.8"/><line class="cls-4" x1="357.98" y1="155.27" x2="540.94" y2="155.27"/><line class="cls-4" x1="357.98" y1="179.73" x2="540.94" y2="179.73"/><path class="cls-4" d="M1035,115.61l-18.14,10.93S808.48,252.59,743.16,290.43L851.9,478.76,1035,381.6"/></g></g></svg>
